src/assets/img/wave1.svg

<?xml version="1.0" encoding="UTF-8" standalone="no"?>
<svg
   xmlns:dc="http://purl.org/dc/elements/1.1/"
   xmlns:cc="http://creativecommons.org/ns#"
   xmlns:rdf="http://www.w3.org/1999/02/22-rdf-syntax-ns#"
   xmlns:svg="http://www.w3.org/2000/svg"
   xmlns="http://www.w3.org/2000/svg"
   xmlns:sodipodi="http://sodipodi.sourceforge.net/DTD/sodipodi-0.dtd"
   xmlns:inkscape="http://www.inkscape.org/namespaces/inkscape"
   viewBox="0 0 1440 320"
   version="1.1"
   id="svg268"
   sodipodi:docname="wave1.svg"
   inkscape:version="1.0.2 (e86c870879, 2021-01-15)">
  <metadata
     id="metadata274">
    <rdf:RDF>
      <cc:Work
         rdf:about="">
        <dc:format>image/svg+xml</dc:format>
        <dc:type
           rdf:resource="http://purl.org/dc/dcmitype/StillImage" />
        <dc:title></dc:title>
      </cc:Work>
    </rdf:RDF>
  </metadata>
  <defs
     id="defs272" />
  <sodipodi:namedview
     pagecolor="#ffffff"
     bordercolor="#666666"
     borderopacity="1"
     objecttolerance="10"
     gridtolerance="10"
     guidetolerance="10"
     inkscape:pageopacity="0"
     inkscape:pageshadow="2"
     inkscape:window-width="1366"
     inkscape:window-height="704"
     id="namedview270"
     showgrid="false"
     inkscape:showpageshadow="false"
     showborder="false"
     inkscape:zoom="0.80486111"
     inkscape:cx="720"
     inkscape:cy="160"
     inkscape:window-x="0"
     inkscape:window-y="27"
     inkscape:window-maximized="1"
     inkscape:current-layer="svg268" />
  <path
     fill="#000"
     fill-opacity="1"
     d="M 0,192 6.2,176 C 12.3,160 25,128 37,149.3 c 12.2,21.7 25,95.7 37,96 12.2,-0.3 24,-74.3 37,-96 12.1,-21.3 24,10.7 37,10.7 12,0 24,-32 37,-53.3 11.9,-21.7 24,-31.7 37,0 11.8,32.3 24,106.3 36,117.3 12.8,11 25,-43 37,-48 12.7,-5 25,37 37,64 12.6,27 25,37 37,42.7 12.5,5.3 25,5.3 37,-16 12.5,-21.7 25,-63.7 37,-69.4 12.4,-5.3 25,26.7 37,32 12.3,5.7 25,-16.3 37,-16 12.2,-0.3 25,21.7 37,16 12.2,-5.3 24,-37.3 37,-80 12.1,-42.3 24,-96.3 37,-90.6 12,5.3 24,69.3 37,112 11.9,42.3 24,64.3 37,32 C 713.8,171 726,85 738,80 c 12.8,-5 25,69 37,117.3 12.7,47.7 25,69.7 37,37.4 C 824.6,203 837,117 849,74.7 861.5,32 874,32 886,64 c 12.5,32 25,96 37,96 12.4,0 25,-64 37,-58.7 12.3,5.7 25,79.7 37,90.7 12.2,11 25,-43 37,-48 12.2,-5 24,37 37,74.7 12.1,37.3 24,69.3 37,32 12,-37.7 24,-143.7 37,-165.4 11.9,-21.3 24,42.7 37,85.4 11.8,42.3 24,64.3 36,58.6 12.8,-5.3 25,-37.3 37,-58.6 12.7,-21.7 25,-31.7 37,-21.4 12.6,10.7 25,42.7 37,32 12.5,-10.3 25,-64.3 37,-90.6 12.5,-26.7 25,-26.7 37,16 12.4,42.3 25,128.3 31,170.6 l 6,42.7 V 0 h -6.2 c -6.1,0 -18.8,0 -30.8,0 -12.2,0 -25,0 -37,0 -12.2,0 -24,0 -37,0 -12.1,0 -24,0 -37,0 -12,0 -24,0 -37,0 -11.9,0 -24,0 -37,0 -11.8,0 -24,0 -36,0 -12.8,0 -25,0 -37,0 -12.7,0 -25,0 -37,0 -12.6,0 -25,0 -37,0 -12.5,0 -25,0 -37,0 -12.5,0 -25,0 -37,0 C 984.6,0 972,0 960,0 947.7,0 935,0 923,0 910.8,0 898,0 886,0 873.8,0 862,0 849,0 836.9,0 825,0 812,0 800,0 788,0 775,0 763.1,0 751,0 738,0 726.2,0 714,0 702,0 689.2,0 677,0 665,0 652.3,0 640,0 628,0 615.4,0 603,0 591,0 578.5,0 566,0 554,0 541.5,0 529,0 517,0 504.6,0 492,0 480,0 467.7,0 455,0 443,0 430.8,0 418,0 406,0 393.8,0 382,0 369,0 356.9,0 345,0 332,0 320,0 308,0 295,0 283.1,0 271,0 258,0 246.2,0 234,0 222,0 209.2,0 197,0 185,0 172.3,0 160,0 148,0 135.4,0 123,0 111,0 98.5,0 86,0 74,0 61.5,0 49,0 37,0 24.6,0 12,0 6,0 H 0 Z"
     id="path266"
     style="fill:#00ffff" />
</svg>

<?xml version="1.0" standalone="no"?><svg xmlns="http://www.w3.org/2000/svg" viewBox="0 0 1440 320"><path fill="#000" fill-opacity="1" d="M0,192L6.2,176C12.3,160,25,128,37,149.3C49.2,171,62,245,74,245.3C86.2,245,98,171,111,149.3C123.1,128,135,160,148,160C160,160,172,128,185,106.7C196.9,85,209,75,222,106.7C233.8,139,246,213,258,224C270.8,235,283,181,295,176C307.7,171,320,213,332,240C344.6,267,357,277,369,282.7C381.5,288,394,288,406,266.7C418.5,245,431,203,443,197.3C455.4,192,468,224,480,229.3C492.3,235,505,213,517,213.3C529.2,213,542,235,554,229.3C566.2,224,578,192,591,149.3C603.1,107,615,53,628,58.7C640,64,652,128,665,170.7C676.9,213,689,235,702,202.7C713.8,171,726,85,738,80C750.8,75,763,149,775,197.3C787.7,245,800,267,812,234.7C824.6,203,837,117,849,74.7C861.5,32,874,32,886,64C898.5,96,911,160,923,160C935.4,160,948,96,960,101.3C972.3,107,985,181,997,192C1009.2,203,1022,149,1034,144C1046.2,139,1058,181,1071,218.7C1083.1,256,1095,288,1108,250.7C1120,213,1132,107,1145,85.3C1156.9,64,1169,128,1182,170.7C1193.8,213,1206,235,1218,229.3C1230.8,224,1243,192,1255,170.7C1267.7,149,1280,139,1292,149.3C1304.6,160,1317,192,1329,181.3C1341.5,171,1354,117,1366,90.7C1378.5,64,1391,64,1403,106.7C1415.4,149,1428,235,1434,277.3L1440,320L1440,0L1433.8,0C1427.7,0,1415,0,1403,0C1390.8,0,1378,0,1366,0C1353.8,0,1342,0,1329,0C1316.9,0,1305,0,1292,0C1280,0,1268,0,1255,0C1243.1,0,1231,0,1218,0C1206.2,0,1194,0,1182,0C1169.2,0,1157,0,1145,0C1132.3,0,1120,0,1108,0C1095.4,0,1083,0,1071,0C1058.5,0,1046,0,1034,0C1021.5,0,1009,0,997,0C984.6,0,972,0,960,0C947.7,0,935,0,923,0C910.8,0,898,0,886,0C873.8,0,862,0,849,0C836.9,0,825,0,812,0C800,0,788,0,775,0C763.1,0,751,0,738,0C726.2,0,714,0,702,0C689.2,0,677,0,665,0C652.3,0,640,0,628,0C615.4,0,603,0,591,0C578.5,0,566,0,554,0C541.5,0,529,0,517,0C504.6,0,492,0,480,0C467.7,0,455,0,443,0C430.8,0,418,0,406,0C393.8,0,382,0,369,0C356.9,0,345,0,332,0C320,0,308,0,295,0C283.1,0,271,0,258,0C246.2,0,234,0,222,0C209.2,0,197,0,185,0C172.3,0,160,0,148,0C135.4,0,123,0,111,0C98.5,0,86,0,74,0C61.5,0,49,0,37,0C24.6,0,12,0,6,0L0,0Z"></path></svg>
